report_00007_2020-12-11T15:55:29.892Z/mainthread-work-breakdown/comparison/sorted/4_vs_5.svg

<svg width="640" height="500" xmlns="http://www.w3.org/2000/svg" xmlns:xlink="http://www.w3.org/1999/xlink"><path fill="#fff" d="M0 0h640v500H0z"/><defs><path id="d" stroke-width=".222" stroke="currentColor" d="M-1-1h2v2h-2z"/><path id="b" stroke-width=".222" stroke="currentColor" d="M0-1.33l-1.33 2h2.66z"/><path id="f" stroke-width=".222" stroke="currentColor" d="M0 1.33L1.265.411.782-1.067l-1.564-.009-.483 1.487z"/><use xlink:href="#b" id="c" stroke="currentColor" transform="rotate(180)"/><use xlink:href="#d" id="e" stroke="currentColor" transform="rotate(45)"/><circle id="a" stroke-width=".222" stroke="currentColor" cx="0" cy="0" r="1"/></defs><g fill="none" color="#000" stroke="currentColor"><path stroke="#000" d="M53.9 390.3h9m552.1 0h-9"/><text transform="translate(45.6 394.2)" stroke="none" fill="#000" font-family="Arial" font-size="12" text-anchor="end"><tspan>760</tspan></text></g><g fill="none" color="#000" stroke="currentColor"><path stroke="#000" d="M53.9 346h9m552.1 0h-9"/><text transform="translate(45.6 349.9)" stroke="none" fill="#000" font-family="Arial" font-size="12" text-anchor="end"><tspan>780</tspan></text></g><g fill="none" color="#000" stroke="currentColor"><path stroke="#000" d="M53.9 301.7h9m552.1 0h-9"/><text transform="translate(45.6 305.6)" stroke="none" fill="#000" font-family="Arial" font-size="12" text-anchor="end"><tspan>800</tspan></text></g><g fill="none" color="#000" stroke="currentColor"><path stroke="#000" d="M53.9 257.4h9m552.1 0h-9"/><text transform="translate(45.6 261.3)" stroke="none" fill="#000" font-family="Arial" font-size="12" text-anchor="end"><tspan>820</tspan></text></g><g fill="none" color="#000" stroke="currentColor"><path stroke="#000" d="M53.9 213.1h9m552.1 0h-9"/><text transform="translate(45.6 217)" stroke="none" fill="#000" font-family="Arial" font-size="12" text-anchor="end"><tspan>840</tspan></text></g><g fill="none" color="#000" stroke="currentColor"><path stroke="#000" d="M53.9 168.8h9m552.1 0h-9"/><text transform="translate(45.6 172.7)" stroke="none" fill="#000" font-family="Arial" font-size="12" text-anchor="end"><tspan>860</tspan></text></g><g fill="none" color="#000" stroke="currentColor"><path stroke="#000" d="M53.9 124.5h9m552.1 0h-9"/><text transform="translate(45.6 128.4)" stroke="none" fill="#000" font-family="Arial" font-size="12" text-anchor="end"><tspan>880</tspan></text></g><g fill="none" color="#000" stroke="currentColor"><path stroke="#000" d="M53.9 80.2h9m552.1 0h-9"/><text transform="translate(45.6 84.1)" stroke="none" fill="#000" font-family="Arial" font-size="12" text-anchor="end"><tspan>900</tspan></text></g><g fill="none" color="#000" stroke="currentColor"><path stroke="#000" d="M53.9 35.9h9m552.1 0h-9"/><text transform="translate(45.6 39.8)" stroke="none" fill="#000" font-family="Arial" font-size="12" text-anchor="end"><tspan>920</tspan></text></g><g fill="none" color="#000" stroke="currentColor"><path stroke="#000" d="M53.9 428v-9m0-400.9v9"/><text transform="translate(53.9 449.9)" stroke="none" fill="#000" font-family="Arial" font-size="12" text-anchor="middle"><tspan>0</tspan></text></g><g fill="none" color="#000" stroke="currentColor"><path stroke="#000" d="M110.6 428v-9m0-400.9v9"/><text transform="translate(110.6 449.9)" stroke="none" fill="#000" font-family="Arial" font-size="12" text-anchor="middle"><tspan>10</tspan></text></g><g fill="none" color="#000" stroke="currentColor"><path stroke="#000" d="M167.3 428v-9m0-400.9v9"/><text transform="translate(167.3 449.9)" stroke="none" fill="#000" font-family="Arial" font-size="12" text-anchor="middle"><tspan>20</tspan></text></g><g fill="none" color="#000" stroke="currentColor"><path stroke="#000" d="M223.9 428v-9m0-400.9v9"/><text transform="translate(223.9 449.9)" stroke="none" fill="#000" font-family="Arial" font-size="12" text-anchor="middle"><tspan>30</tspan></text></g><g fill="none" color="#000" stroke="currentColor"><path stroke="#000" d="M280.6 428v-9m0-400.9v9"/><text transform="translate(280.6 449.9)" stroke="none" fill="#000" font-family="Arial" font-size="12" text-anchor="middle"><tspan>40</tspan></text></g><g fill="none" color="#000" stroke="currentColor"><path stroke="#000" d="M337.3 428v-9m0-400.9v9"/><text transform="translate(337.3 449.9)" stroke="none" fill="#000" font-family="Arial" font-size="12" text-anchor="middle"><tspan>50</tspan></text></g><g fill="none" color="#000" stroke="currentColor"><path stroke="#000" d="M394 428v-9m0-400.9v9"/><text transform="translate(394 449.9)" stroke="none" fill="#000" font-family="Arial" font-size="12" text-anchor="middle"><tspan>60</tspan></text></g><g fill="none" color="#000" stroke="currentColor"><path stroke="#000" d="M450.6 428v-9m0-400.9v9"/><text transform="translate(450.6 449.9)" stroke="none" fill="#000" font-family="Arial" font-size="12" text-anchor="middle"><tspan>70</tspan></text></g><g fill="none" color="#000" stroke="currentColor"><path stroke="#000" d="M507.3 428v-9m0-400.9v9"/><text transform="translate(507.3 449.9)" stroke="none" fill="#000" font-family="Arial" font-size="12" text-anchor="middle"><tspan>80</tspan></text></g><g fill="none" color="#000" stroke="currentColor"><path stroke="#000" d="M564 428v-9m0-400.9v9"/><text transform="translate(564 449.9)" stroke="none" fill="#000" font-family="Arial" font-size="12" text-anchor="middle"><tspan>90</tspan></text></g><path stroke="#000" d="M53.9 18.1V428H615V18.1H53.9z" fill="none" color="#000"/><text transform="translate(275.6 467.9)" stroke="none" fill="#000" font-family="Arial" font-size="12" text-anchor="end" color="#000"><tspan>pages+cached+noadtech</tspan></text><path stroke="#9400D3" d="M283.9 464h42.2M53.9 420.1l5.7-6.6 5.6-11.7 5.7-2.3 5.7-1.4 5.6-.2 5.7-2.2 5.7-5.3 5.6-.5 5.7-3.1 5.7-2.5 5.6-6.2 5.7-2.5 5.7-.6 5.6-.9 5.7-11 5.7-3.5 5.7-2.5 5.6-.5 5.7-5.1 5.7-2.7 5.6-3.7 5.7-3.4 5.7-3.5 5.6-.6 5.7-.8 5.7-3.8 5.6-2 5.7-5.7 5.7-2.7 5.6-1.9 5.7-.3 5.7-.4 5.6-1.2 5.7-.9 5.7-.9 5.6-.8 5.7-1.1 5.7-5.1 5.6-.3 5.7-1.7 5.7-1.2 5.6-.1 5.7-1.7 5.7-1.1 5.6-.3 5.7-.3h5.7l5.6-2 5.7-3.5 5.7-2 5.7-1.7 5.6-.9 5.7-.3 5.7-.5 5.6-1.1 5.7-.7 5.7-.1 5.6-1.6 5.7-.3 5.7-2 5.6-.7 5.7-.4 5.7-.2 5.6-.7 5.7-1 5.7-1.4 5.6-.7h5.7l5.7-.1 5.6-.1 5.7-2.3 5.7-.9h11.3l5.7-.1 5.6-2.7 5.7-3.3 5.7-2.7 5.6-2.2 5.7-1.1 5.7-.8 5.6-1 5.7-1.4 5.7-4.5 5.7-2.8 5.6-6.8 5.7-3.2 5.7-.2 5.6-.3 5.7-1.4 5.7-.3 5.6-3.4 5.7-8.3 5.7-6 5.6-18.5 5.7-5.5 5.7-5.4 5.6-129.1L615 26" fill="none" color="#000"/><text transform="translate(275.6 485.9)" stroke="none" fill="#000" font-family="Arial" font-size="12" text-anchor="end" color="#000"><tspan>pages+cached+noexternal</tspan></text><path stroke="#009E73" d="M283.9 482h42.2M53.9 368.1l5.7-9.9 5.6-4.7 5.7-4.1 5.7-11 5.6-2 5.7-1.7 5.7-3.8 5.6-11.6 5.7-.4 5.7-2.4 5.6-.2 5.7-1.5 5.7-2.4 5.6-2.2 5.7-1.7 5.7-.5 5.7-4.2 5.6-2.1 5.7-2.9 5.7-.2 5.6-.8 5.7-2.4 5.7-.6 5.6-1.2 5.7-.9 5.7-2 5.6-5 5.7-1 5.7-.1 5.6-6.4 5.7-2.2 5.7-1.3 5.6-1.7 5.7-.7 5.7-.6 5.6-1.8 5.7-.4 5.7-.2 5.6-2.1 5.7-.9 5.7-.5 5.6-2 5.7-3.7 5.7-.4 5.6-.6 5.7-1 5.7-2.7 5.6-1 5.7-.6 5.7-.3 5.7-.5 5.6-2 5.7-.2h5.7l5.6-.3h5.7l5.7-.5 5.6-1.1 5.7-1.9 5.7-1.8h5.6l5.7-1 5.7-.4 5.6-2.4 5.7-2.1 5.7-.9 5.6-.6 5.7-1.8 5.7-2.3 5.6-.2 5.7-.1 5.7-5.3 5.6-.1h5.7l5.7-1.4 5.6-.3 5.7-2.1 5.7-.5 5.6-1.3 5.7-1 5.7-.4 5.6-.4 5.7-1.7 5.7-.3 5.7-.9 5.6-.8 5.7-3.6 5.7-3.8 5.6-.6 5.7-1.2 5.7-3 5.6-2.9 5.7-1.1 5.7-6.4 5.6-2.5 5.7-17.3 5.7-32 5.6-4.8 5.7-26.2" fill="none" color="#000"/><text transform="translate(525.3 467.9)" stroke="none" fill="#000" font-family="Arial" font-size="12" text-anchor="end" color="#000"><tspan>score p10=2017</tspan></text><path stroke="#56B4E9" d="M533.6 464h42.2" fill="none" color="#000"/><g><text transform="translate(525.3 485.9)" stroke="none" fill="#000" font-family="Arial" font-size="12" text-anchor="end" color="#000"><tspan>score median=4000</tspan></text><path stroke="#E69F00" d="M533.6 482h42.2" fill="none" color="#000"/></g><g fill="none" color="#000" stroke="currentColor"><path stroke="#000" d="M53.9 18.1V428H615V18.1H53.9z"/></g></svg>

<?xml version="1.0" encoding="utf-8"  standalone="no"?>
<svg 
 width="640" height="500"
 viewBox="0 0 640 500"
 xmlns="http://www.w3.org/2000/svg"
 xmlns:xlink="http://www.w3.org/1999/xlink"
>

<title>Gnuplot</title>
<desc>Produced by GNUPLOT 5.4 patchlevel 0 </desc>

<g id="gnuplot_canvas">

<rect x="0" y="0" width="640" height="500" fill="#ffffff"/>
<defs>

	<circle id='gpDot' r='0.5' stroke-width='0.5' stroke='currentColor'/>
	<path id='gpPt0' stroke-width='0.222' stroke='currentColor' d='M-1,0 h2 M0,-1 v2'/>
	<path id='gpPt1' stroke-width='0.222' stroke='currentColor' d='M-1,-1 L1,1 M1,-1 L-1,1'/>
	<path id='gpPt2' stroke-width='0.222' stroke='currentColor' d='M-1,0 L1,0 M0,-1 L0,1 M-1,-1 L1,1 M-1,1 L1,-1'/>
	<rect id='gpPt3' stroke-width='0.222' stroke='currentColor' x='-1' y='-1' width='2' height='2'/>
	<rect id='gpPt4' stroke-width='0.222' stroke='currentColor' fill='currentColor' x='-1' y='-1' width='2' height='2'/>
	<circle id='gpPt5' stroke-width='0.222' stroke='currentColor' cx='0' cy='0' r='1'/>
	<use xlink:href='#gpPt5' id='gpPt6' fill='currentColor' stroke='none'/>
	<path id='gpPt7' stroke-width='0.222' stroke='currentColor' d='M0,-1.33 L-1.33,0.67 L1.33,0.67 z'/>
	<use xlink:href='#gpPt7' id='gpPt8' fill='currentColor' stroke='none'/>
	<use xlink:href='#gpPt7' id='gpPt9' stroke='currentColor' transform='rotate(180)'/>
	<use xlink:href='#gpPt9' id='gpPt10' fill='currentColor' stroke='none'/>
	<use xlink:href='#gpPt3' id='gpPt11' stroke='currentColor' transform='rotate(45)'/>
	<use xlink:href='#gpPt11' id='gpPt12' fill='currentColor' stroke='none'/>
	<path id='gpPt13' stroke-width='0.222' stroke='currentColor' d='M0,1.330 L1.265,0.411 L0.782,-1.067 L-0.782,-1.076 L-1.265,0.411 z'/>
	<use xlink:href='#gpPt13' id='gpPt14' fill='currentColor' stroke='none'/>
	<filter id='textbox' filterUnits='objectBoundingBox' x='0' y='0' height='1' width='1'>
	  <feFlood flood-color='#FFFFFF' flood-opacity='1' result='bgnd'/>
	  <feComposite in='SourceGraphic' in2='bgnd' operator='atop'/>
	</filter>
	<filter id='greybox' filterUnits='objectBoundingBox' x='0' y='0' height='1' width='1'>
	  <feFlood flood-color='lightgrey' flood-opacity='1' result='grey'/>
	  <feComposite in='SourceGraphic' in2='grey' operator='atop'/>
	</filter>
</defs>
<g fill="none" color="#FFFFFF" stroke="black" stroke-width="1.00" stroke-linecap="butt" stroke-linejoin="miter">
</g>
<g fill="none" color="black" stroke="currentColor" stroke-width="1.00" stroke-linecap="butt" stroke-linejoin="miter">
	<path stroke='black'  d='M53.9,390.3 L62.9,390.3 M615.0,390.3 L606.0,390.3  '/>	<g transform="translate(45.6,394.2)" stroke="none" fill="black" font-family="Arial" font-size="12.00"  text-anchor="end">
		<text><tspan font-family="Arial" > 760</tspan></text>
	</g>
</g>
<g fill="none" color="black" stroke="currentColor" stroke-width="1.00" stroke-linecap="butt" stroke-linejoin="miter">
	<path stroke='black'  d='M53.9,346.0 L62.9,346.0 M615.0,346.0 L606.0,346.0  '/>	<g transform="translate(45.6,349.9)" stroke="none" fill="black" font-family="Arial" font-size="12.00"  text-anchor="end">
		<text><tspan font-family="Arial" > 780</tspan></text>
	</g>
</g>
<g fill="none" color="black" stroke="currentColor" stroke-width="1.00" stroke-linecap="butt" stroke-linejoin="miter">
	<path stroke='black'  d='M53.9,301.7 L62.9,301.7 M615.0,301.7 L606.0,301.7  '/>	<g transform="translate(45.6,305.6)" stroke="none" fill="black" font-family="Arial" font-size="12.00"  text-anchor="end">
		<text><tspan font-family="Arial" > 800</tspan></text>
	</g>
</g>
<g fill="none" color="black" stroke="currentColor" stroke-width="1.00" stroke-linecap="butt" stroke-linejoin="miter">
	<path stroke='black'  d='M53.9,257.4 L62.9,257.4 M615.0,257.4 L606.0,257.4  '/>	<g transform="translate(45.6,261.3)" stroke="none" fill="black" font-family="Arial" font-size="12.00"  text-anchor="end">
		<text><tspan font-family="Arial" > 820</tspan></text>
	</g>
</g>
<g fill="none" color="black" stroke="currentColor" stroke-width="1.00" stroke-linecap="butt" stroke-linejoin="miter">
	<path stroke='black'  d='M53.9,213.1 L62.9,213.1 M615.0,213.1 L606.0,213.1  '/>	<g transform="translate(45.6,217.0)" stroke="none" fill="black" font-family="Arial" font-size="12.00"  text-anchor="end">
		<text><tspan font-family="Arial" > 840</tspan></text>
	</g>
</g>
<g fill="none" color="black" stroke="currentColor" stroke-width="1.00" stroke-linecap="butt" stroke-linejoin="miter">
	<path stroke='black'  d='M53.9,168.8 L62.9,168.8 M615.0,168.8 L606.0,168.8  '/>	<g transform="translate(45.6,172.7)" stroke="none" fill="black" font-family="Arial" font-size="12.00"  text-anchor="end">
		<text><tspan font-family="Arial" > 860</tspan></text>
	</g>
</g>
<g fill="none" color="black" stroke="currentColor" stroke-width="1.00" stroke-linecap="butt" stroke-linejoin="miter">
	<path stroke='black'  d='M53.9,124.5 L62.9,124.5 M615.0,124.5 L606.0,124.5  '/>	<g transform="translate(45.6,128.4)" stroke="none" fill="black" font-family="Arial" font-size="12.00"  text-anchor="end">
		<text><tspan font-family="Arial" > 880</tspan></text>
	</g>
</g>
<g fill="none" color="black" stroke="currentColor" stroke-width="1.00" stroke-linecap="butt" stroke-linejoin="miter">
	<path stroke='black'  d='M53.9,80.2 L62.9,80.2 M615.0,80.2 L606.0,80.2  '/>	<g transform="translate(45.6,84.1)" stroke="none" fill="black" font-family="Arial" font-size="12.00"  text-anchor="end">
		<text><tspan font-family="Arial" > 900</tspan></text>
	</g>
</g>
<g fill="none" color="black" stroke="currentColor" stroke-width="1.00" stroke-linecap="butt" stroke-linejoin="miter">
	<path stroke='black'  d='M53.9,35.9 L62.9,35.9 M615.0,35.9 L606.0,35.9  '/>	<g transform="translate(45.6,39.8)" stroke="none" fill="black" font-family="Arial" font-size="12.00"  text-anchor="end">
		<text><tspan font-family="Arial" > 920</tspan></text>
	</g>
</g>
<g fill="none" color="black" stroke="currentColor" stroke-width="1.00" stroke-linecap="butt" stroke-linejoin="miter">
	<path stroke='black'  d='M53.9,428.0 L53.9,419.0 M53.9,18.1 L53.9,27.1  '/>	<g transform="translate(53.9,449.9)" stroke="none" fill="black" font-family="Arial" font-size="12.00"  text-anchor="middle">
		<text><tspan font-family="Arial" > 0</tspan></text>
	</g>
</g>
<g fill="none" color="black" stroke="currentColor" stroke-width="1.00" stroke-linecap="butt" stroke-linejoin="miter">
	<path stroke='black'  d='M110.6,428.0 L110.6,419.0 M110.6,18.1 L110.6,27.1  '/>	<g transform="translate(110.6,449.9)" stroke="none" fill="black" font-family="Arial" font-size="12.00"  text-anchor="middle">
		<text><tspan font-family="Arial" > 10</tspan></text>
	</g>
</g>
<g fill="none" color="black" stroke="currentColor" stroke-width="1.00" stroke-linecap="butt" stroke-linejoin="miter">
	<path stroke='black'  d='M167.3,428.0 L167.3,419.0 M167.3,18.1 L167.3,27.1  '/>	<g transform="translate(167.3,449.9)" stroke="none" fill="black" font-family="Arial" font-size="12.00"  text-anchor="middle">
		<text><tspan font-family="Arial" > 20</tspan></text>
	</g>
</g>
<g fill="none" color="black" stroke="currentColor" stroke-width="1.00" stroke-linecap="butt" stroke-linejoin="miter">
	<path stroke='black'  d='M223.9,428.0 L223.9,419.0 M223.9,18.1 L223.9,27.1  '/>	<g transform="translate(223.9,449.9)" stroke="none" fill="black" font-family="Arial" font-size="12.00"  text-anchor="middle">
		<text><tspan font-family="Arial" > 30</tspan></text>
	</g>
</g>
<g fill="none" color="black" stroke="currentColor" stroke-width="1.00" stroke-linecap="butt" stroke-linejoin="miter">
	<path stroke='black'  d='M280.6,428.0 L280.6,419.0 M280.6,18.1 L280.6,27.1  '/>	<g transform="translate(280.6,449.9)" stroke="none" fill="black" font-family="Arial" font-size="12.00"  text-anchor="middle">
		<text><tspan font-family="Arial" > 40</tspan></text>
	</g>
</g>
<g fill="none" color="black" stroke="currentColor" stroke-width="1.00" stroke-linecap="butt" stroke-linejoin="miter">
	<path stroke='black'  d='M337.3,428.0 L337.3,419.0 M337.3,18.1 L337.3,27.1  '/>	<g transform="translate(337.3,449.9)" stroke="none" fill="black" font-family="Arial" font-size="12.00"  text-anchor="middle">
		<text><tspan font-family="Arial" > 50</tspan></text>
	</g>
</g>
<g fill="none" color="black" stroke="currentColor" stroke-width="1.00" stroke-linecap="butt" stroke-linejoin="miter">
	<path stroke='black'  d='M394.0,428.0 L394.0,419.0 M394.0,18.1 L394.0,27.1  '/>	<g transform="translate(394.0,449.9)" stroke="none" fill="black" font-family="Arial" font-size="12.00"  text-anchor="middle">
		<text><tspan font-family="Arial" > 60</tspan></text>
	</g>
</g>
<g fill="none" color="black" stroke="currentColor" stroke-width="1.00" stroke-linecap="butt" stroke-linejoin="miter">
	<path stroke='black'  d='M450.6,428.0 L450.6,419.0 M450.6,18.1 L450.6,27.1  '/>	<g transform="translate(450.6,449.9)" stroke="none" fill="black" font-family="Arial" font-size="12.00"  text-anchor="middle">
		<text><tspan font-family="Arial" > 70</tspan></text>
	</g>
</g>
<g fill="none" color="black" stroke="currentColor" stroke-width="1.00" stroke-linecap="butt" stroke-linejoin="miter">
	<path stroke='black'  d='M507.3,428.0 L507.3,419.0 M507.3,18.1 L507.3,27.1  '/>	<g transform="translate(507.3,449.9)" stroke="none" fill="black" font-family="Arial" font-size="12.00"  text-anchor="middle">
		<text><tspan font-family="Arial" > 80</tspan></text>
	</g>
</g>
<g fill="none" color="black" stroke="currentColor" stroke-width="1.00" stroke-linecap="butt" stroke-linejoin="miter">
	<path stroke='black'  d='M564.0,428.0 L564.0,419.0 M564.0,18.1 L564.0,27.1  '/>	<g transform="translate(564.0,449.9)" stroke="none" fill="black" font-family="Arial" font-size="12.00"  text-anchor="middle">
		<text><tspan font-family="Arial" > 90</tspan></text>
	</g>
</g>
<g fill="none" color="black" stroke="currentColor" stroke-width="1.00" stroke-linecap="butt" stroke-linejoin="miter">
</g>
<g fill="none" color="black" stroke="currentColor" stroke-width="1.00" stroke-linecap="butt" stroke-linejoin="miter">
	<path stroke='black'  d='M53.9,18.1 L53.9,428.0 L615.0,428.0 L615.0,18.1 L53.9,18.1 Z  '/></g>
<g fill="none" color="black" stroke="currentColor" stroke-width="1.00" stroke-linecap="butt" stroke-linejoin="miter">
</g>
	<g id="gnuplot_plot_1" ><title>pages+cached+noadtech</title>
<g fill="none" color="black" stroke="currentColor" stroke-width="1.00" stroke-linecap="butt" stroke-linejoin="miter">
	<g transform="translate(275.6,467.9)" stroke="none" fill="black" font-family="Arial" font-size="12.00"  text-anchor="end">
		<text><tspan font-family="Arial" >pages+cached+noadtech</tspan></text>
	</g>
</g>
<g fill="none" color="black" stroke="currentColor" stroke-width="1.00" stroke-linecap="butt" stroke-linejoin="miter">
	<path stroke='rgb(148,   0, 211)'  d='M283.9,464.0 L326.1,464.0 M53.9,420.1 L59.6,413.5 L65.2,401.8 L70.9,399.5 L76.6,398.1 L82.2,397.9
		L87.9,395.7 L93.6,390.4 L99.2,389.9 L104.9,386.8 L110.6,384.3 L116.2,378.1 L121.9,375.6 L127.6,375.0
		L133.2,374.1 L138.9,363.1 L144.6,359.6 L150.3,357.1 L155.9,356.6 L161.6,351.5 L167.3,348.8 L172.9,345.1
		L178.6,341.7 L184.3,338.2 L189.9,337.6 L195.6,336.8 L201.3,333.0 L206.9,331.0 L212.6,325.3 L218.3,322.6
		L223.9,320.7 L229.6,320.4 L235.3,320.0 L240.9,318.8 L246.6,317.9 L252.3,317.0 L257.9,316.2 L263.6,315.1
		L269.3,310.0 L274.9,309.7 L280.6,308.0 L286.3,306.8 L291.9,306.7 L297.6,305.0 L303.3,303.9 L308.9,303.6
		L314.6,303.3 L320.3,303.3 L325.9,301.3 L331.6,297.8 L337.3,295.8 L343.0,294.1 L348.6,293.2 L354.3,292.9
		L360.0,292.4 L365.6,291.3 L371.3,290.6 L377.0,290.5 L382.6,288.9 L388.3,288.6 L394.0,286.6 L399.6,285.9
		L405.3,285.5 L411.0,285.3 L416.6,284.6 L422.3,283.6 L428.0,282.2 L433.6,281.5 L439.3,281.5 L445.0,281.4
		L450.6,281.3 L456.3,279.0 L462.0,278.1 L467.6,278.1 L473.3,278.1 L479.0,278.0 L484.6,275.3 L490.3,272.0
		L496.0,269.3 L501.6,267.1 L507.3,266.0 L513.0,265.2 L518.6,264.2 L524.3,262.8 L530.0,258.3 L535.7,255.5
		L541.3,248.7 L547.0,245.5 L552.7,245.3 L558.3,245.0 L564.0,243.6 L569.7,243.3 L575.3,239.9 L581.0,231.6
		L586.7,225.6 L592.3,207.1 L598.0,201.6 L603.7,196.2 L609.3,67.1 L615.0,26.0  '/></g>
	</g>
	<g id="gnuplot_plot_2" ><title>pages+cached+noexternal</title>
<g fill="none" color="black" stroke="currentColor" stroke-width="1.00" stroke-linecap="butt" stroke-linejoin="miter">
	<g transform="translate(275.6,485.9)" stroke="none" fill="black" font-family="Arial" font-size="12.00"  text-anchor="end">
		<text><tspan font-family="Arial" >pages+cached+noexternal</tspan></text>
	</g>
</g>
<g fill="none" color="black" stroke="currentColor" stroke-width="1.00" stroke-linecap="butt" stroke-linejoin="miter">
	<path stroke='rgb(  0, 158, 115)'  d='M283.9,482.0 L326.1,482.0 M53.9,368.1 L59.6,358.2 L65.2,353.5 L70.9,349.4 L76.6,338.4 L82.2,336.4
		L87.9,334.7 L93.6,330.9 L99.2,319.3 L104.9,318.9 L110.6,316.5 L116.2,316.3 L121.9,314.8 L127.6,312.4
		L133.2,310.2 L138.9,308.5 L144.6,308.0 L150.3,303.8 L155.9,301.7 L161.6,298.8 L167.3,298.6 L172.9,297.8
		L178.6,295.4 L184.3,294.8 L189.9,293.6 L195.6,292.7 L201.3,290.7 L206.9,285.7 L212.6,284.7 L218.3,284.6
		L223.9,278.2 L229.6,276.0 L235.3,274.7 L240.9,273.0 L246.6,272.3 L252.3,271.7 L257.9,269.9 L263.6,269.5
		L269.3,269.3 L274.9,267.2 L280.6,266.3 L286.3,265.8 L291.9,263.8 L297.6,260.1 L303.3,259.7 L308.9,259.1
		L314.6,258.1 L320.3,255.4 L325.9,254.4 L331.6,253.8 L337.3,253.5 L343.0,253.0 L348.6,251.0 L354.3,250.8
		L360.0,250.8 L365.6,250.5 L371.3,250.5 L377.0,250.0 L382.6,248.9 L388.3,247.0 L394.0,245.2 L399.6,245.2
		L405.3,244.2 L411.0,243.8 L416.6,241.4 L422.3,239.3 L428.0,238.4 L433.6,237.8 L439.3,236.0 L445.0,233.7
		L450.6,233.5 L456.3,233.4 L462.0,228.1 L467.6,228.0 L473.3,228.0 L479.0,226.6 L484.6,226.3 L490.3,224.2
		L496.0,223.7 L501.6,222.4 L507.3,221.4 L513.0,221.0 L518.6,220.6 L524.3,218.9 L530.0,218.6 L535.7,217.7
		L541.3,216.9 L547.0,213.3 L552.7,209.5 L558.3,208.9 L564.0,207.7 L569.7,204.7 L575.3,201.8 L581.0,200.7
		L586.7,194.3 L592.3,191.8 L598.0,174.5 L603.7,142.5 L609.3,137.7 L615.0,111.5  '/></g>
	</g>
	<g id="gnuplot_plot_3" ><title>score p10=2017</title>
<g fill="none" color="black" stroke="currentColor" stroke-width="1.00" stroke-linecap="butt" stroke-linejoin="miter">
	<g transform="translate(525.3,467.9)" stroke="none" fill="black" font-family="Arial" font-size="12.00"  text-anchor="end">
		<text><tspan font-family="Arial" >score p10=2017</tspan></text>
	</g>
</g>
<g fill="none" color="black" stroke="currentColor" stroke-width="1.00" stroke-linecap="butt" stroke-linejoin="miter">
	<path stroke='rgb( 86, 180, 233)'  d='M533.6,464.0 L575.8,464.0  '/></g>
	</g>
	<g id="gnuplot_plot_4" ><title>score median=4000</title>
<g fill="none" color="black" stroke="currentColor" stroke-width="1.00" stroke-linecap="butt" stroke-linejoin="miter">
	<g transform="translate(525.3,485.9)" stroke="none" fill="black" font-family="Arial" font-size="12.00"  text-anchor="end">
		<text><tspan font-family="Arial" >score median=4000</tspan></text>
	</g>
</g>
<g fill="none" color="black" stroke="currentColor" stroke-width="1.00" stroke-linecap="butt" stroke-linejoin="miter">
	<path stroke='rgb(230, 159,   0)'  d='M533.6,482.0 L575.8,482.0  '/></g>
	</g>
<g fill="none" color="#FFFFFF" stroke="rgb(230, 159,   0)" stroke-width="2.00" stroke-linecap="butt" stroke-linejoin="miter">
</g>
<g fill="none" color="black" stroke="currentColor" stroke-width="2.00" stroke-linecap="butt" stroke-linejoin="miter">
</g>
<g fill="none" color="black" stroke="black" stroke-width="1.00" stroke-linecap="butt" stroke-linejoin="miter">
</g>
<g fill="none" color="black" stroke="currentColor" stroke-width="1.00" stroke-linecap="butt" stroke-linejoin="miter">
	<path stroke='black'  d='M53.9,18.1 L53.9,428.0 L615.0,428.0 L615.0,18.1 L53.9,18.1 Z  '/></g>
<g fill="none" color="black" stroke="currentColor" stroke-width="1.00" stroke-linecap="butt" stroke-linejoin="miter">
</g>
</g>
</svg>
